!!!OTL: 41i. Der Maedchenraeuber.
!!!ODT: 1885
!!!ARE: Europa, Mitteleuropa, Deutschland, Limburg, Nauheim
!!!SCT: E0041B
!!!TXL: @@DE
!!!YEM: Copyright 1995, estate of Helmut Schaffrath.
**kern	**text
*ICvox	*
*M6/8	*
*k[f#]	*
*G:	*
!LO:TX:a:t=Mäßig-	!
!LO:TX:a:t=Aus Nauheim bei Limburg (1885).	!
{8dd	Es
=1	=1
4cc	ritt
8b	ein
8a	Räu-
8a	-ber
8ee	wohl
=2	=2
8dd	ü-
8dd	-ber
8cc	den
4b}	Rhein,
{8dd	der
=3	=3
8cc	konn-
8cc	-te
8b	ſo
8a	wun-
8a	-der-
8ee	-ſchön
=4	=4
(4dd	ſin-
8cc)	.
4b}	-gen,
{8g	ein
=5	=5
8g	Liedchen
8g	.
8g	von
8g	drei-
8a	-er-
8g	-lei
=6	=6
(4cc	Stim-
8ee)	.
(8ggL	-men,
8ff#J)}	.
{8ee	ein
=7	=7
8dd	Liedchen
8gg	.
8b	von
8dd	drei-
8dd	-er-
16aL	-lei
16bJ	.
=8	=8
(4cc	Stim-
8dd)	.
4b}	-men.
==	==
!!!AGN: erzaehlendes Volks - Lied, Raeuber - Sage, Ballade ?
!!!ONB: ESAC (Essen Associative Code) Database: ERK1
!!!AMT: compound duple
!!!AIN: vox
!!!EED: Helmut Schaffrath
!!!EEV: 1.0
!!!GTL: Ritter- und Raeubersagen
!!!URL-scan: https://rosdok.uni-rostock.de/mcrviewer/recordIdentifier/rosdok_ppn745146120/iview2/phys_0195.iview2?x=-250.1417780126858&y=545.5298048590776&scale=0.5392104374602399&rotation=0&layout=singlePageLayout&logicalDiv=log_0009
!!!ENC: Anna Maria Matuszewska
!!!EEV: 2024/11/25
*-	*-
